X:1
T:Title
L:1/8
M:6/8
I:linebreak $
K:G
V:1 treble nm="Voice"
V:1
"G" B>AG"C" A>cA |"G" B>dB"C" cde |"G" B>AG dBG |"G" EGB"D" FED |"G" B>AG"C" A>cA | %5
"G" B>dB"C" cec | deg"G" dBG |1"D" FAd"G" G2 D :|2"D" FAd"G" G2 g |:"D" fdA afd |"C" efg c3 | %11
"G" Bdg bag |"D" f/g/af d2 c |"C" ecG ceg |"G" dBg dBd |"C" cAc"G" BGB |1"D" dfa"G" g3 :|2 %17
"D" dfa"G" g2 d |] %18
